P2
# ASCII
125 117
255
189 189 189 189 189 189 189 189 189 189 189 189 189 189 189 189 189 
189 189 189 189 189 189 189 189 189 189 189 189 189 189 189 189 
189 189 189 189 189 189 189 189 189 189 189 189 189 189 189 189 
189 189 189 189 189 189 189 189 189 189 189 189 189 189 189 189 
189 189 189 189 189 189 189 189 189 189 189 189 189 189 189 189 
189 189 189 189 189 189 189 189 189 189 189 189 189 189 189 189 
189 189 189 189 189 189 189 189 189 189 189 189 189 189 189 189 
189 189 189 189 189 189 189 189 189 189 189 189 189 189 189 189 189 189 189 189 189 189 189 189 189 189 189 189 189 
189 189 189 189 189 189 189 189 189 189 189 189 189 189 189 189 
189 189 189 189 189 189 189 189 189 189 189 189 189 189 189 189 
189 189 189 189 189 189 189 189 189 189 189 189 189 189 189 189 
189 189 189 189 189 189 189 189 189 189 189 189 189 189 189 189 
189 189 189 189 189 189 189 189 189 189 189 189 189 189 189 189 
189 189 189 189 189 189 189 189 189 189 189 189 189 189 189 189 
189 189 189 189 189 189 189 189 189 189 189 189 189 189 189 189 189 189 189 189 189 189 189 189 189 189 189 189 189 
189 189 189 189 189 189 189 189 189 189 189 189 189 189 189 189 
189 189 189 189 189 189 189 189 189 189 189 189 189 189 189 189 
189 189 189 189 189 189 189 189 189 189 189 189 189 189 189 189 
189 189 189 189 189 189 189 189 189 189 189 189 189 189 189 189 
189 189 189 189 189 189 189 189 189 189 189 189 189 189 189 189 
189 189 189 189 189 189 189 189 189 189 189 189 189 189 189 189 
189 189 189 189 189 189 189 189 189 189 189 189 189 189 189 189 189 189 189 189 189 189 189 189 189 189 189 189 189 
189 189 189 189 189 189 189 189 189 189 189 189 189 189 189 189 
189 189 189 189 189 189 189 189 189 189 189 189 189 189 189 189 
189 189 189 189 189 189 189 189 189 189 189 189 189 189 189 216 
216 189 189 216 216 216 189 189 189 216 189 189 189 189 216 216 
189 189 189 189 189 189 189 189 189 189 189 189 189 189 189 189 
189 189 189 189 189 189 189 189 189 189 189 189 189 189 189 189 
189 189 189 189 189 189 189 189 189 189 189 189 189 189 189 189 189 189 189 189 189 189 189 189 189 189 189 189 189 
189 189 189 189 189 189 189 189 189 189 189 189 189 189 189 189 
189 189 189 189 189 189 189 189 189 189 189 189 189 189 189 189 
189 189 189 189 189 189 189 189 189 189 189 189 150 150 216 150 
216 216 150 216 216 216 189 216 150 216 150 216 216 216 150 216 
216 189 189 189 189 189 189 189 189 189 189 189 189 189 189 189 
189 189 189 189 189 189 189 189 189 189 189 189 189 189 189 189 
189 189 189 189 189 189 189 189 189 189 189 189 189 189 189 189 189 189 189 189 189 189 189 189 189 189 189 189 189 
189 189 189 189 189 189 189 189 189 189 189 189 189 189 189 189 
189 189 189 189 189 189 189 189 189 189 189 189 189 189 189 189 
189 189 189 189 189 189 189 189 189 189 189 216 97 216 216 216 
216 216 97 150 216 216 97 216 150 216 216 216 216 150 216 216 
216 216 216 189 216 189 189 189 189 189 189 189 189 189 189 189 
189 189 189 189 189 189 189 189 189 189 189 189 189 189 189 189 
189 189 189 189 189 189 189 189 189 189 189 189 189 189 189 189 189 189 189 189 189 189 189 189 189 189 189 189 189 
189 189 189 189 189 189 189 189 189 189 189 189 189 189 189 189 
189 189 189 189 189 189 189 189 189 189 189 189 189 189 189 189 
189 189 189 189 189 189 189 189 189 189 189 150 150 150 97 216 
97 216 216 150 216 216 216 216 216 216 216 216 150 216 216 216 
216 216 216 150 216 189 189 189 189 189 189 189 189 189 189 189 
189 189 189 189 189 189 189 189 189 189 189 189 189 189 189 189 
189 189 189 189 189 189 189 189 189 189 189 189 189 189 189 189 189 189 189 189 189 189 189 189 189 189 189 189 189 
189 189 189 189 189 189 189 189 189 189 189 189 189 189 189 189 
189 189 189 189 189 189 189 189 189 189 189 189 189 189 189 189 
189 189 189 189 189 189 189 189 189 189 216 150 97 97 150 216 
97 216 216 97 216 216 216 150 216 216 216 216 150 216 216 216 
216 216 150 216 216 216 216 189 189 189 189 189 189 189 189 189 
189 189 189 189 189 189 189 189 189 216 189 189 150 216 189 189 
189 189 189 189 189 189 189 189 189 189 189 189 189 189 189 189 189 189 189 189 189 189 189 216 189 189 189 189 189 
189 189 189 189 189 189 189 189 189 189 189 189 189 189 189 189 
189 189 189 189 189 189 189 189 189 189 189 189 189 189 189 189 
189 189 189 189 189 189 189 189 189 189 150 97 97 150 216 150 
216 97 216 150 216 97 216 97 216 216 150 97 216 216 216 216 
216 150 216 216 216 216 216 216 216 216 216 189 189 189 189 189 
189 189 189 189 189 150 216 216 150 216 189 97 216 216 189 150 
216 189 189 189 189 189 189 189 189 189 189 189 189 189 189 189 189 189 189 189 189 216 150 97 150 189 189 189 189 
189 189 189 189 189 189 189 189 189 189 189 189 189 189 189 189 
189 189 189 189 189 189 189 189 189 189 189 189 189 189 189 189 
189 189 189 189 189 189 189 189 189 216 97 97 150 216 216 97 
216 97 216 150 216 216 216 97 216 97 216 97 216 216 150 216 
150 216 150 216 216 216 216 150 150 216 189 189 189 189 189 189 
189 189 189 216 150 216 216 150 216 216 97 216 216 216 150 216 
216 216 189 189 189 189 189 189 189 189 189 189 189 189 189 189 189 189 189 189 189 150 97 53 97 150 189 189 189 
189 189 189 189 189 189 189 189 189 189 189 189 189 189 189 189 
189 189 189 189 189 189 189 189 189 189 189 189 189 189 189 189 
189 189 189 189 189 189 189 189 189 150 97 97 150 216 97 97 
216 150 216 216 150 216 97 150 216 216 216 150 216 216 216 216 
150 216 216 216 216 97 97 216 216 216 216 189 189 189 189 189 
189 189 216 150 216 216 150 216 216 97 216 216 150 216 216 216 
150 216 189 189 189 189 189 189 189 189 189 189 189 189 189 189 189 189 189 189 189 189 22 53 97 97 189 189 189 
189 189 189 189 189 189 189 189 189 189 189 189 189 189 189 189 
189 189 189 189 189 189 189 189 189 189 189 189 189 189 189 189 
189 189 189 189 189 189 189 189 189 150 150 97 216 150 53 150 
216 150 150 216 97 216 216 150 216 150 150 216 150 216 216 150 
216 216 216 216 216 150 216 216 216 216 216 189 189 189 189 189 
189 150 216 216 150 150 216 150 150 216 150 150 216 150 216 97 
216 216 189 189 189 189 189 189 189 189 189 189 189 189 189 189 189 189 189 189 189 189 53 53 53 97 97 189 189 
189 189 189 189 189 189 189 189 189 189 189 189 189 189 189 189 
189 189 189 189 189 189 189 189 189 189 189 189 189 189 189 189 
189 189 189 189 189 189 189 189 189 189 97 53 97 97 53 216 
150 216 53 216 97 216 216 97 216 97 97 216 150 216 216 150 
216 216 216 216 97 216 216 216 216 216 216 216 216 189 189 189 
150 216 216 150 150 216 97 150 150 216 97 216 150 216 97 216 
216 97 216 189 189 189 189 189 189 189 189 189 189 189 189 189 189 189 189 189 189 189 150 53 53 97 53 189 189 
189 189 189 189 189 189 189 189 189 189 189 189 189 189 189 189 
189 189 216 189 189 189 189 189 189 189 189 189 189 189 189 189 
189 189 189 189 189 189 189 189 189 189 97 97 53 97 97 216 
53 216 97 216 97 216 216 97 216 216 150 216 216 216 97 216 
216 150 216 150 216 216 216 216 216 150 97 216 189 189 189 150 
216 216 150 150 216 97 216 97 216 97 216 97 216 150 216 216 
150 216 216 150 150 189 189 189 189 189 189 189 189 189 189 189 189 189 189 189 189 189 189 97 22 53 97 216 189 
189 189 189 189 189 189 189 189 189 189 189 189 189 189 189 216 
216 216 216 216 216 189 216 189 189 189 189 189 189 189 189 189 
189 189 189 189 189 189 189 189 189 189 216 53 53 97 97 97 
53 216 53 216 97 216 216 97 216 150 97 216 216 216 150 216 
216 216 97 216 216 216 216 216 150 216 216 189 189 189 150 150 
216 97 216 216 150 216 97 216 97 216 150 216 97 216 216 150 
216 97 150 216 216 189 189 189 189 189 189 189 189 189 189 189 189 189 189 189 189 189 189 189 53 53 97 97 189 
189 189 189 189 189 189 189 189 189 189 189 189 189 189 189 150 
216 150 216 150 216 216 216 189 216 189 189 189 189 189 189 189 
189 189 189 189 189 189 189 189 189 189 189 53 53 53 53 53 
97 97 53 150 53 216 216 97 216 216 97 216 216 216 150 216 
216 216 150 216 216 216 216 97 216 216 97 189 189 216 97 216 
97 216 216 216 150 97 150 97 216 216 216 97 216 216 216 150 
97 216 216 150 216 216 189 189 189 189 189 189 189 189 189 189 189 189 189 189 189 189 189 189 189 22 53 22 189 
189 189 189 189 189 189 189 189 189 189 189 189 189 150 189 150 
216 216 216 216 216 216 216 150 189 216 189 189 189 189 189 189 
189 189 189 189 189 189 189 189 189 189 189 150 53 53 53 53 
53 97 53 97 97 150 216 53 216 216 97 216 216 150 216 216 
97 97 216 216 216 216 97 216 216 216 216 216 216 97 216 97 
216 150 216 150 97 150 97 216 216 150 97 216 216 216 53 216 
216 97 216 216 97 216 189 189 189 189 189 189 189 189 189 189 189 189 189 189 189 189 189 189 189 189 22 53 216 
189 189 189 189 189 189 189 189 189 189 189 189 216 150 216 150 
150 216 216 216 216 216 216 216 216 150 189 216 189 189 189 189 
189 189 189 189 189 189 189 189 189 189 189 150 53 53 53 53 
97 53 97 53 97 97 216 97 216 97 97 216 216 97 216 150 
150 150 216 150 216 97 216 216 216 216 97 216 97 150 97 216 
216 97 97 97 97 150 216 216 97 97 150 216 97 97 216 216 
150 216 97 216 216 216 189 189 189 189 189 189 189 189 189 189 189 189 189 189 189 189 189 189 189 189 189 22 53 
189 189 189 189 189 189 189 189 189 189 189 189 216 150 150 216 
150 216 97 216 150 216 150 216 150 216 216 189 189 189 189 189 
189 189 189 189 189 189 189 189 189 189 189 216 22 53 97 53 
97 53 53 97 97 53 216 97 150 216 97 216 216 150 216 97 
150 216 97 216 150 150 216 97 216 150 216 97 150 97 216 216 
216 97 150 97 216 150 216 97 150 150 150 97 150 216 150 216 
150 97 216 216 97 189 189 189 189 189 189 189 189 189 189 189 189 189 189 189 189 189 189 189 189 189 189 216 97 
216 189 189 189 189 189 189 189 189 189 189 216 97 216 150 216 
150 216 150 216 150 216 150 216 150 216 150 216 189 189 189 189 
189 189 189 189 189 189 189 189 189 189 189 216 53 53 53 53 
53 53 53 53 53 53 97 97 97 216 97 216 216 97 216 216 
97 216 216 150 97 216 216 150 216 216 97 97 97 216 216 150 
97 97 97 216 216 97 216 97 97 97 53 216 97 216 97 97 
150 216 150 216 97 216 216 189 189 189 189 189 189 189 189 189 189 189 189 189 189 189 189 189 189 189 189 189 97 
53 189 189 189 189 189 189 189 189 189 216 216 216 97 97 216 
216 216 150 216 150 216 97 216 216 150 216 150 150 189 216 216 
216 189 189 189 189 189 189 189 189 189 189 150 22 53 97 53 
97 53 53 53 53 97 97 97 97 97 97 150 216 150 216 216 
150 216 150 97 216 150 150 150 216 150 97 97 216 216 150 97 
97 216 216 97 216 150 97 97 97 150 216 216 150 150 97 216 
216 150 216 97 216 150 189 189 189 189 189 189 189 189 189 189 189 189 189 189 189 189 189 189 189 189 189 189 189 
53 216 189 189 189 189 189 189 189 189 216 216 216 150 97 216 
150 216 216 150 216 150 150 97 97 97 53 97 97 97 97 150 
97 97 53 97 150 216 189 189 189 189 189 97 53 53 53 53 
53 53 53 97 53 53 97 53 150 97 216 216 150 216 216 216 
216 216 150 216 216 216 150 216 150 97 97 216 150 97 97 97 
216 216 97 216 150 97 97 97 216 150 216 97 97 97 216 97 
216 97 150 97 216 216 189 189 189 189 189 189 189 189 189 189 189 189 189 189 189 189 189 189 189 189 189 189 189 
216 53 189 189 189 189 189 189 189 189 216 150 216 97 97 150 
216 150 150 150 97 97 97 53 97 53 97 97 97 97 97 97 
97 97 53 97 97 97 97 216 189 189 189 53 53 53 53 53 
53 53 53 53 53 97 97 97 150 216 150 216 150 216 150 216 
216 150 216 216 97 150 216 216 97 97 216 216 97 97 97 216 
150 216 97 97 97 97 150 216 216 216 216 97 97 216 216 150 
150 97 216 216 216 189 216 189 189 189 189 189 189 189 189 189 189 189 189 189 189 189 189 189 189 189 189 189 189 
189 97 150 189 189 189 189 189 189 189 150 150 216 216 53 150 
216 97 150 97 97 53 53 53 53 97 150 97 97 97 97 97 
97 97 97 53 97 53 97 53 97 216 216 22 53 53 22 53 
53 53 22 53 97 97 150 216 150 216 150 216 150 216 97 216 
216 150 216 216 150 216 216 216 150 216 150 97 97 150 216 150 
150 97 97 97 97 216 216 97 216 97 97 150 97 97 97 150 
216 216 216 97 216 150 216 189 189 189 189 189 189 189 189 189 189 189 189 189 189 189 189 189 189 189 189 189 189 
189 189 53 189 189 189 189 189 189 216 150 150 150 97 97 150 
97 97 97 53 53 53 53 53 97 97 97 97 97 97 97 53 
53 53 53 97 53 53 53 53 53 97 53 53 53 53 53 53 
22 53 53 22 97 97 150 216 150 216 97 216 97 216 97 216 
216 97 150 216 97 216 150 150 216 216 150 97 216 216 216 97 
97 97 97 216 216 97 216 150 97 97 97 97 150 216 216 216 
150 216 216 150 150 189 189 189 189 189 189 189 189 189 189 189 189 189 189 189 189 189 189 189 189 189 189 189 189 
189 189 150 97 189 189 189 189 189 216 216 150 150 97 97 97 
97 97 97 53 53 53 22 97 97 97 97 97 97 53 97 97 
97 53 53 53 53 53 53 53 53 97 97 53 53 53 22 53 
22 53 53 53 97 150 150 216 97 216 150 216 97 216 97 216 
150 150 216 150 216 216 150 216 150 216 150 216 97 216 97 97 
97 150 216 150 216 150 97 97 97 97 150 216 216 150 216 97 
216 150 97 216 216 97 189 189 189 189 189 189 189 189 189 189 189 189 189 189 189 189 189 189 189 189 189 189 189 
189 189 189 53 216 189 189 189 189 150 150 150 97 97 97 97 
97 53 53 53 53 53 97 97 97 97 97 97 97 97 53 53 
53 53 53 22 53 53 53 53 53 53 53 53 53 53 53 53 
53 22 53 53 216 150 150 216 97 216 97 216 97 216 97 216 
150 150 216 97 150 150 150 216 216 97 216 97 216 97 150 97 
216 216 216 150 97 150 53 97 150 216 216 150 216 97 216 216 
97 150 216 216 150 216 216 189 189 189 189 189 189 189 189 189 189 189 189 189 189 189 189 189 189 189 189 189 189 
189 189 189 150 97 189 189 189 189 216 150 150 97 53 97 97 
53 53 53 22 53 53 53 97 97 97 97 97 53 53 53 53 
53 53 53 97 53 53 22 53 53 53 53 53 53 53 53 22 
22 53 53 150 150 97 150 216 97 216 97 150 97 216 97 150 
97 150 150 150 216 97 150 150 97 216 150 216 150 216 150 216 
216 216 97 97 97 53 216 216 216 150 216 97 216 216 97 150 
216 216 97 216 150 97 216 189 189 189 189 189 189 189 189 189 189 189 189 189 189 189 189 189 189 189 189 189 189 
189 189 189 189 53 216 189 189 189 150 150 150 53 97 97 53 
53 53 22 53 53 53 53 97 97 97 53 53 53 53 53 53 
22 53 53 53 53 53 97 53 53 22 53 53 53 53 53 53 
53 53 53 150 97 97 216 150 150 150 150 216 97 150 97 216 
53 216 97 216 97 216 216 97 216 150 216 97 216 97 216 97 
97 97 97 97 150 216 216 97 216 97 216 216 97 97 216 216 
97 216 150 97 216 216 189 189 189 189 189 189 189 189 189 189 189 189 189 189 189 189 189 189 189 189 189 189 189 
189 189 189 189 150 97 189 189 189 216 150 53 53 97 53 53 
53 53 22 53 53 53 53 97 53 97 53 53 53 53 53 53 
97 53 97 53 53 53 53 53 53 53 53 22 53 53 22 97 
53 53 22 150 97 150 216 97 150 97 150 150 53 216 97 150 
150 97 150 150 150 150 97 150 216 97 150 216 150 216 216 97 
97 97 97 216 150 216 97 216 150 150 97 150 150 216 150 97 
97 97 216 216 216 150 189 189 189 189 189 189 189 189 189 189 189 189 189 189 189 189 189 189 189 189 189 189 189 
189 189 189 189 189 97 216 189 189 189 53 97 97 53 53 53 
53 22 53 53 53 53 97 97 97 97 22 53 53 53 53 53 
53 53 97 53 97 53 53 53 53 53 53 53 53 53 53 53 
53 53 53 150 97 150 150 53 150 97 97 150 53 150 150 53 
216 53 150 97 216 53 216 150 150 216 150 216 216 97 216 97 
97 216 216 97 216 97 216 97 97 97 97 97 97 97 150 216 
216 150 216 150 150 189 189 189 189 189 189 189 189 189 189 189 189 189 189 189 189 189 189 189 189 189 189 189 189 
189 189 189 189 189 97 97 189 189 53 53 53 53 53 53 22 
22 22 22 22 53 53 53 97 53 53 53 53 22 22 53 53 
53 97 53 97 97 97 53 53 53 53 22 53 53 22 53 53 
53 53 53 97 150 150 97 53 150 53 53 97 53 97 97 53 
97 150 22 216 22 216 53 150 150 150 216 97 150 216 216 216 
216 216 216 216 150 97 97 97 97 97 97 216 216 216 216 150 
216 150 97 216 216 189 189 189 189 189 189 189 189 189 189 189 189 189 189 189 189 189 189 189 189 189 189 189 189 
189 189 189 189 189 189 97 216 53 53 53 97 53 97 53 53 
22 22 22 22 53 97 97 97 53 53 22 53 53 53 53 53 
53 97 53 53 53 53 53 53 22 53 22 22 22 53 22 22 
53 53 53 97 150 97 53 97 97 53 97 97 53 53 53 97 
97 53 150 53 150 53 216 150 150 97 150 150 216 150 97 216 
216 150 97 97 97 97 97 150 216 216 216 150 216 97 216 216 
97 150 216 216 216 216 189 189 189 189 189 189 189 189 189 189 189 189 189 189 189 189 189 189 189 189 189 189 189 
189 189 189 189 189 189 97 53 97 53 53 53 53 53 22 22 
22 53 22 53 53 53 97 53 53 53 22 22 22 53 53 53 
53 53 53 53 53 53 53 53 53 53 22 53 22 53 22 22 
53 53 53 97 97 97 97 97 97 53 97 53 53 97 53 97 
53 97 53 150 53 216 97 97 150 150 216 150 97 216 216 216 
97 97 97 97 150 216 150 216 97 216 97 216 150 216 97 97 
216 216 150 97 189 189 189 189 189 189 189 189 189 189 189 189 189 189 189 189 189 189 189 189 189 189 189 189 189 
189 189 189 189 216 97 53 97 97 97 53 97 53 22 22 22 
22 22 22 22 53 97 97 53 53 53 22 53 53 53 22 53 
53 97 53 53 22 22 22 22 53 22 22 22 22 22 22 53 
53 22 53 97 97 53 97 53 97 53 53 53 53 53 53 97 
97 53 97 53 150 53 150 150 150 150 97 216 150 150 150 150 
97 97 150 216 216 150 216 97 216 150 216 150 97 97 216 150 
97 150 216 189 189 189 189 189 189 189 189 189 189 189 189 189 189 189 189 189 189 189 189 189 189 189 189 189 189 
189 189 189 150 53 22 53 97 22 97 97 97 53 22 22 22 
22 22 22 53 97 53 53 53 22 53 22 22 22 53 53 53 
53 53 53 53 53 22 22 22 22 22 22 22 22 22 22 22 
53 22 22 97 97 97 97 53 53 53 97 53 53 97 53 53 
53 53 53 97 53 150 150 53 97 216 150 53 150 216 216 150 
216 150 216 97 216 97 216 216 150 97 97 97 97 97 97 216 
216 216 216 216 189 189 189 189 189 189 189 189 189 189 189 189 189 189 189 189 189 189 189 189 189 189 189 189 189 
189 189 97 53 53 53 97 53 53 97 53 53 53 22 22 22 
22 22 22 53 53 53 53 22 22 22 22 53 22 53 22 97 
53 53 53 53 53 22 22 22 22 22 22 22 22 22 22 22 
22 53 22 97 97 97 53 97 53 53 53 53 53 53 53 97 
53 53 53 97 53 53 150 150 97 53 150 216 216 150 216 216 
216 150 150 150 97 97 97 97 97 97 150 150 216 216 216 150 
216 97 216 189 189 189 189 189 189 189 189 189 189 189 189 189 189 189 189 189 189 189 189 189 189 189 189 189 189 
189 53 53 53 53 53 53 53 97 97 97 53 22 22 22 22 
22 53 22 53 53 97 22 53 22 22 22 22 22 22 53 53 
53 53 53 53 53 53 22 22 22 22 22 22 22 22 22 22 
22 22 22 97 53 97 53 53 53 53 53 53 53 53 53 53 
53 53 53 53 53 97 53 97 150 150 97 97 150 150 216 97 
97 97 97 97 97 97 97 150 216 216 216 216 150 216 216 150 
150 189 189 189 189 189 189 189 189 189 189 189 189 189 189 189 189 189 189 189 189 189 189 189 189 189 189 189 189 
97 53 53 53 22 53 22 53 97 22 53 53 22 22 22 22 
22 22 22 53 53 53 22 22 22 22 22 22 53 53 53 53 
22 22 53 53 53 53 53 22 22 22 22 22 22 22 22 22 
22 22 22 97 53 97 53 53 53 53 53 53 53 53 53 53 
53 53 22 53 53 53 150 97 53 150 150 216 216 150 216 97 
97 97 150 216 216 150 216 216 97 216 216 216 150 97 97 216 
189 189 189 189 189 189 189 189 189 189 189 189 189 189 189 189 189 189 189 189 189 189 189 189 189 189 189 189 150 
53 53 53 22 53 53 53 97 53 97 53 22 22 22 22 22 
22 22 53 97 53 53 22 22 22 22 22 22 22 22 22 53 
53 53 53 53 53 22 53 53 22 22 22 22 22 22 22 22 
22 22 22 97 53 53 53 53 22 53 22 53 53 53 53 53 
53 22 53 53 53 53 150 150 150 97 97 150 150 216 97 150 
97 97 150 150 150 150 150 150 150 97 97 150 97 216 189 189 
189 189 189 189 189 189 189 189 189 189 189 189 189 189 189 189 189 189 189 189 189 189 189 189 189 189 189 216 53 
22 53 53 53 53 22 53 97 53 150 22 22 22 22 22 22 
22 22 53 53 53 53 22 22 22 22 22 22 22 53 53 22 
53 22 53 53 53 53 53 53 53 22 22 22 22 22 22 22 
22 22 53 53 97 53 53 53 53 53 53 53 53 53 22 53 
53 53 53 53 22 53 53 53 97 216 150 150 150 150 97 97 
97 150 97 97 97 97 150 97 97 150 97 97 189 189 189 189 
189 189 189 189 189 189 189 189 189 189 189 189 189 189 189 189 189 189 189 189 189 189 189 189 189 189 189 53 53 
53 97 53 53 53 53 53 97 53 97 53 22 53 22 22 22 
53 22 53 53 53 22 22 22 22 22 22 22 22 53 53 22 
53 53 22 53 22 53 22 53 53 53 22 22 22 22 53 22 
22 53 53 53 53 53 22 53 53 22 53 22 22 53 53 53 
53 22 22 22 53 53 53 150 97 53 97 216 216 150 150 150 
97 97 97 97 97 97 97 150 150 216 216 189 189 189 189 189 
189 189 189 189 189 189 189 189 189 189 189 189 189 189 189 189 189 189 189 189 189 189 189 189 189 189 150 53 53 
53 53 53 53 53 97 97 97 53 53 97 22 22 22 22 22 
22 22 53 53 53 22 22 22 22 22 22 22 22 22 22 53 
22 22 53 53 53 53 53 53 22 53 53 22 53 22 22 22 
53 53 53 53 53 53 53 22 53 22 22 22 53 22 22 22 
22 53 53 22 53 53 53 150 216 216 97 150 216 189 189 189 
189 189 189 189 189 189 189 189 189 189 189 189 189 189 189 189 
189 189 189 189 189 189 189 189 189 189 189 189 189 189 189 189 189 189 189 189 189 189 189 189 189 189 53 53 53 
53 97 97 22 53 53 97 53 53 53 97 22 53 22 22 53 
53 53 53 53 53 53 22 22 22 22 22 22 53 22 53 53 
22 22 53 22 53 53 22 53 53 53 53 22 22 53 53 22 
53 53 53 53 97 53 53 53 53 22 22 53 22 53 22 22 
53 22 22 53 53 53 97 97 97 53 150 189 189 189 189 189 
189 189 189 189 189 189 189 189 189 189 189 189 189 189 189 189 
189 189 189 189 189 189 189 189 189 189 189 189 189 189 189 189 189 189 189 189 189 189 189 189 189 97 97 53 97 
97 97 53 53 53 53 53 53 22 53 97 53 53 53 53 53 
53 53 53 53 53 22 22 22 22 22 22 22 22 53 53 22 
53 53 53 53 22 53 53 53 22 53 53 53 22 22 22 53 
22 53 53 53 53 53 53 53 22 22 53 22 22 22 22 22 
22 53 22 53 53 53 53 216 189 189 189 189 189 189 216 97 
150 216 189 189 189 189 189 189 189 189 189 189 189 189 189 189 
189 189 189 189 189 189 189 189 189 189 189 189 189 189 189 189 189 189 189 189 189 189 189 189 216 97 53 97 97 
53 97 53 53 53 53 53 53 53 97 97 53 53 53 53 97 
53 53 53 53 53 53 22 22 22 22 22 22 22 22 22 53 
22 22 22 22 22 53 22 53 53 53 53 53 53 22 53 22 
53 53 22 22 53 53 53 53 53 22 22 22 22 22 22 22 
22 22 53 53 53 97 97 216 216 97 150 150 97 97 216 189 
189 189 189 189 189 189 189 189 189 189 189 189 189 189 189 189 
189 189 189 189 189 189 189 189 189 189 189 189 189 189 189 189 189 189 189 189 189 189 189 189 97 53 97 97 97 
97 97 22 53 97 53 53 53 53 22 22 97 53 97 53 22 
22 53 22 22 53 53 53 22 22 22 22 22 53 53 53 53 
22 53 22 53 22 22 53 22 53 53 53 53 53 22 22 22 
53 53 53 22 22 53 53 53 53 53 22 53 22 53 22 53 
22 53 53 97 53 53 97 97 97 53 150 216 216 216 216 150 
216 189 216 216 189 189 189 189 189 189 189 189 189 189 189 189 
189 189 189 189 189 189 189 189 189 189 189 189 189 189 189 189 189 189 189 189 189 189 189 97 97 97 97 97 97 
97 53 97 53 53 53 22 53 22 22 22 97 53 97 22 22 
22 22 22 53 22 97 53 22 22 22 22 22 22 22 53 22 
53 53 53 22 22 22 97 22 53 53 53 53 53 53 22 53 
22 53 53 53 53 22 22 53 53 53 53 22 22 53 22 22 
53 53 97 53 53 53 97 216 97 216 150 216 216 216 216 150 
150 97 216 189 189 189 189 189 189 189 189 189 189 189 189 189 
189 189 189 189 189 189 189 189 189 189 189 189 189 189 189 189 189 189 189 189 189 189 216 53 97 22 150 22 97 
53 53 53 97 97 53 53 22 53 22 22 97 22 53 22 22 
22 22 22 22 53 53 97 22 22 22 22 22 22 53 53 53 
53 22 53 22 53 22 22 53 53 53 53 53 22 53 53 22 
22 53 22 53 22 53 22 22 53 53 53 53 22 22 53 22 
97 53 22 53 53 53 97 97 150 150 97 97 97 150 150 216 
216 216 189 189 189 189 189 189 189 189 189 189 189 189 189 189 
189 189 189 189 189 189 189 189 189 189 189 189 189 189 189 189 189 189 189 189 189 189 97 53 97 53 97 22 97 
53 53 53 97 97 53 53 53 53 53 53 97 53 53 53 22 
22 22 22 22 53 97 97 53 53 22 22 53 22 22 53 53 
53 53 53 22 22 22 22 22 53 22 53 53 53 53 53 22 
22 22 53 53 53 53 53 22 22 22 53 53 53 22 53 53 
53 22 53 53 53 53 22 97 150 216 216 216 216 216 216 97 
216 216 189 189 189 189 189 189 189 189 189 189 189 189 189 189 
189 189 189 189 189 189 189 189 189 189 189 189 189 189 189 189 189 189 189 189 189 216 53 97 97 22 22 53 53 
53 53 97 97 97 53 53 53 53 53 22 53 22 53 22 22 
53 22 22 53 53 97 97 53 97 22 22 22 22 53 53 22 
22 22 22 22 53 22 22 22 22 53 53 53 53 53 53 22 
22 22 22 53 53 53 53 53 22 22 53 53 53 53 53 22 
22 22 22 53 53 97 216 150 216 216 216 216 216 216 216 216 
150 150 189 189 189 189 189 189 189 189 189 189 189 189 189 189 
189 189 189 189 189 189 189 189 189 189 189 189 189 189 189 189 189 189 189 189 189 97 53 53 97 97 97 22 53 
53 97 53 97 97 97 97 53 53 97 53 53 53 22 53 22 
22 53 22 53 97 53 97 97 97 97 22 53 22 53 53 150 
22 22 22 53 22 22 22 22 22 53 53 53 53 53 22 53 
22 22 22 22 53 53 53 53 22 22 22 53 53 53 53 22 
22 22 53 53 53 53 53 97 97 97 97 97 150 150 216 216 
216 189 189 189 189 189 189 189 189 189 189 189 189 189 189 189 
189 189 189 189 189 189 189 189 189 189 189 189 189 189 189 189 189 189 189 189 216 53 53 97 53 97 53 53 53 
53 53 53 53 97 97 97 97 150 97 97 97 97 97 53 53 
53 53 53 97 97 53 97 53 97 97 53 22 22 22 53 53 
22 97 22 22 22 22 22 22 22 22 22 53 53 53 53 53 
53 22 22 22 53 22 53 53 53 22 22 22 22 53 53 53 
22 53 53 53 97 216 189 216 216 216 216 216 216 216 216 216 
189 189 189 189 189 189 189 189 189 189 189 189 189 189 189 189 
189 189 189 189 189 189 189 189 189 189 189 189 189 189 189 189 189 189 189 189 150 53 53 97 97 97 22 53 53 
53 53 53 53 97 97 150 97 97 97 150 97 97 150 97 97 
97 97 53 97 97 53 53 53 53 97 53 53 22 53 53 53 
97 53 53 22 22 22 22 22 22 53 22 53 53 53 53 22 
53 22 22 22 22 53 53 53 53 53 22 53 22 53 53 53 
53 53 53 53 53 97 97 150 216 216 216 216 216 216 216 216 
189 189 189 189 189 189 189 189 189 189 189 189 189 189 189 189 
189 189 189 189 189 189 189 189 189 189 189 189 189 189 189 189 189 189 189 189 53 53 53 97 22 97 22 53 53 
53 53 22 97 97 97 97 97 150 97 97 97 97 97 97 97 
97 97 97 97 97 53 53 22 53 53 97 53 22 22 97 97 
53 53 22 53 22 22 22 22 22 22 53 22 53 22 53 53 
53 53 22 22 22 22 22 22 53 53 22 22 22 22 53 53 
53 216 189 189 189 189 216 216 97 97 97 97 97 97 216 189 
189 189 189 189 189 189 189 189 189 189 189 189 189 189 189 189 
189 189 189 189 189 189 189 189 189 189 189 189 189 189 189 189 189 189 189 216 53 53 53 97 97 53 53 53 53 
53 53 97 97 53 53 53 22 22 22 22 22 22 22 97 53 
97 97 97 53 53 53 53 22 22 53 97 53 53 22 150 97 
53 53 53 22 22 22 22 22 22 22 22 53 53 53 53 53 
22 53 22 22 22 22 22 53 53 53 22 22 22 22 53 53 
53 53 216 189 189 189 189 189 189 189 189 189 189 189 189 189 
189 189 189 189 189 189 189 189 189 189 189 189 189 189 189 189 
189 189 189 189 189 189 189 189 189 189 189 189 189 189 189 189 189 189 189 97 53 53 53 97 53 22 53 97 22 
53 97 22 97 53 22 22 22 22 22 22 22 22 22 22 22 
53 53 53 53 97 22 22 22 22 22 97 53 53 22 53 22 
22 53 22 22 22 22 22 22 22 22 22 22 53 22 53 53 
53 53 53 22 22 22 22 22 53 53 53 53 22 22 22 53 
53 97 53 216 189 189 189 189 189 189 189 189 189 189 189 189 
189 189 189 189 189 189 189 189 189 189 189 189 189 189 189 189 
189 189 189 189 189 189 189 189 189 189 189 189 189 189 189 189 189 189 189 53 53 53 97 22 22 53 53 53 53 
53 97 97 22 97 97 53 53 53 22 53 22 53 53 97 97 
97 53 53 53 97 22 53 22 22 53 53 97 53 53 53 53 
53 22 22 22 22 22 22 22 22 22 53 53 22 53 53 53 
53 22 22 53 22 22 22 22 22 22 53 53 22 22 22 53 
53 97 53 53 189 189 189 189 189 189 189 189 189 189 189 189 
189 189 189 189 189 189 189 189 189 189 189 189 189 189 189 189 
189 189 189 189 189 189 189 189 189 189 189 189 189 189 189 189 189 189 189 53 53 53 22 22 53 53 53 97 53 
150 22 22 53 53 53 97 97 97 53 53 97 53 53 97 53 
53 53 97 97 53 97 97 53 53 22 22 53 97 53 22 53 
22 22 22 22 22 22 22 22 22 22 22 53 53 22 22 53 
53 53 53 22 22 22 22 22 22 53 53 53 53 22 53 22 
53 53 97 97 97 189 189 189 189 189 189 189 189 189 189 189 
189 189 189 189 189 189 189 189 189 189 189 189 189 189 189 189 
189 189 189 189 189 189 189 189 189 189 189 189 189 189 189 189 189 189 216 22 53 53 22 53 22 53 53 53 150 
22 53 53 97 97 53 216 97 22 22 53 53 53 53 97 216 
97 22 53 53 53 97 22 97 53 22 97 53 97 53 53 22 
22 22 22 22 22 22 22 22 22 22 22 22 22 53 22 53 
53 22 53 22 53 22 22 22 22 22 22 22 53 22 22 22 
22 97 53 97 97 189 189 189 189 189 189 189 189 189 189 189 
189 189 189 189 189 189 189 189 189 189 189 189 189 189 189 189 
189 189 189 189 189 189 189 189 189 189 189 189 189 189 189 189 189 189 216 53 53 22 22 53 53 53 53 150 22 
22 97 97 22 97 53 150 53 53 22 53 53 22 22 97 150 
97 22 97 53 97 53 97 53 53 150 53 97 53 53 53 53 
22 22 22 22 22 22 22 22 22 22 22 22 53 53 53 22 
22 53 22 53 53 53 22 22 22 22 53 22 53 53 22 53 
22 53 97 53 97 150 189 189 189 189 189 189 189 189 189 189 
189 189 189 189 189 189 189 189 189 189 189 189 189 189 189 189 
189 189 189 189 189 189 189 189 189 189 189 189 189 189 189 189 189 189 150 53 22 22 53 53 97 97 150 22 53 
150 97 216 97 97 53 97 22 97 22 150 22 53 22 150 22 
53 53 97 53 53 97 22 53 53 53 53 150 53 97 97 53 
22 22 22 22 22 22 22 22 22 22 22 22 22 22 53 22 
53 53 22 53 53 22 22 22 22 22 22 22 53 22 53 22 
22 53 97 97 97 97 189 189 189 189 189 189 189 189 189 189 
189 189 189 189 189 189 189 189 189 189 189 189 189 189 189 189 
189 189 189 189 189 189 189 189 189 189 189 189 189 189 189 189 189 189 150 53 53 53 53 22 53 150 53 53 53 
97 97 150 22 97 53 53 22 22 22 150 22 53 150 97 22 
22 97 53 97 22 97 97 53 22 97 53 22 97 97 53 53 
53 53 22 22 22 22 22 22 22 22 22 22 22 22 22 53 
53 53 53 53 22 22 53 22 22 22 22 22 53 22 53 53 
53 22 53 97 97 97 189 189 189 189 189 189 189 189 189 189 
189 189 189 189 189 189 189 189 189 189 189 189 189 189 189 189 
189 189 189 189 189 189 189 189 189 189 189 189 189 189 189 189 189 189 150 22 22 22 53 53 97 97 53 53 53 
97 216 22 53 216 22 22 22 22 22 150 22 150 150 22 22 
97 53 22 22 22 97 22 97 53 53 53 97 53 22 150 53 
53 22 22 22 22 22 22 22 22 22 22 22 22 53 22 53 
22 22 53 22 53 53 53 22 22 22 22 53 22 53 22 53 
53 53 53 53 97 97 189 189 189 189 189 189 189 189 189 189 
189 189 189 189 189 189 189 189 189 189 189 189 189 189 189 189 
189 189 189 189 189 189 189 189 189 189 189 189 189 189 189 189 189 189 150 22 53 22 53 97 97 53 97 53 150 
22 216 22 53 216 22 22 22 22 22 97 22 150 150 22 22 
97 53 22 22 22 97 53 97 22 97 97 53 150 97 22 150 
53 53 22 22 22 22 22 22 22 22 22 22 22 22 22 22 
53 53 22 53 53 22 53 53 22 22 22 22 22 53 53 53 
53 53 22 53 97 97 189 189 189 189 189 189 189 189 189 189 
189 189 189 189 189 189 189 189 189 189 189 189 189 189 189 189 
189 189 189 189 189 189 189 189 189 189 189 189 189 189 189 189 189 189 97 22 22 53 53 97 22 97 97 53 150 
22 150 22 150 216 22 22 22 22 22 22 22 150 150 22 22 
97 22 22 22 22 150 22 97 53 97 53 97 53 97 53 53 
97 53 22 22 22 22 22 22 22 22 22 22 22 22 53 22 
22 53 53 53 22 53 53 53 22 22 22 22 22 53 53 53 
53 53 22 97 53 150 189 189 189 189 189 189 189 189 189 189 
189 189 189 189 189 189 189 189 189 189 189 189 189 189 189 189 
189 189 189 189 189 189 189 189 189 189 189 189 189 189 189 189 189 189 53 22 53 53 97 53 97 97 97 22 97 
22 150 22 150 216 22 22 22 22 22 22 22 216 150 22 22 
150 22 22 22 22 150 22 97 53 97 53 97 97 97 97 97 
22 97 53 53 22 22 22 22 22 22 22 22 22 22 22 22 
53 22 22 22 53 22 53 22 22 22 22 22 22 22 53 53 
97 53 53 53 97 150 189 189 189 189 189 189 189 189 189 189 
189 189 189 189 189 189 189 189 189 189 189 189 189 189 189 189 
189 189 189 189 189 189 189 189 189 189 189 189 189 189 189 189 189 189 22 22 53 53 97 53 97 97 216 53 53 
22 22 22 150 150 22 22 22 22 22 22 22 150 150 22 22 
97 22 22 22 22 150 22 97 53 97 22 150 53 97 97 53 
97 22 97 22 22 22 22 22 22 22 22 22 22 22 22 53 
22 53 22 53 53 53 53 53 22 22 22 22 22 22 53 53 
53 53 53 53 53 216 189 189 189 189 189 189 189 189 189 189 
189 189 189 189 189 189 189 189 189 189 189 189 189 189 189 189 
189 189 189 189 189 189 189 189 189 189 189 189 189 189 189 189 189 189 22 53 53 97 22 22 150 53 216 22 22 
22 22 22 150 150 22 22 22 22 22 22 22 216 97 22 22 
22 22 22 22 22 97 22 216 97 97 22 97 53 53 97 97 
97 53 53 97 22 22 22 22 22 22 22 22 22 22 22 22 
22 53 53 53 22 53 53 22 22 22 22 22 22 22 53 53 
53 97 53 53 97 216 189 189 189 189 189 189 189 189 189 189 
189 189 189 189 189 189 189 189 189 189 189 189 189 189 189 189 
189 189 189 189 189 189 189 189 189 189 189 189 189 189 189 189 189 189 22 53 97 53 97 22 53 22 216 22 22 
22 22 22 216 97 22 22 22 22 22 22 22 216 53 22 22 
22 22 22 22 22 22 22 216 97 97 22 22 22 53 97 97 
97 53 22 53 53 22 22 22 22 22 22 22 22 22 22 22 
53 53 53 22 22 53 22 53 22 22 22 22 22 22 22 53 
53 53 53 22 97 189 189 189 189 189 189 189 189 189 189 189 
189 189 189 189 189 189 189 189 189 189 189 189 189 189 189 189 
189 189 189 189 189 189 189 189 189 189 189 189 189 189 189 189 189 189 22 53 97 53 97 22 22 22 216 22 22 
22 22 22 150 97 22 22 22 22 22 22 22 150 53 22 22 
22 22 22 22 22 22 22 216 53 22 22 22 22 22 97 97 
97 53 53 22 53 22 22 22 22 22 22 22 22 22 22 22 
22 22 22 53 53 53 22 53 53 22 22 22 22 22 53 53 
53 97 97 53 150 189 189 189 189 189 189 189 189 189 189 189 
189 189 189 189 189 189 189 189 189 189 189 189 189 189 189 189 
189 189 189 189 189 189 189 189 189 189 189 189 189 189 189 189 189 189 53 97 22 97 97 22 22 22 216 22 22 
22 22 22 150 22 22 22 22 22 22 22 22 216 22 22 22 
22 22 22 22 22 22 22 216 53 22 53 22 22 22 97 97 
97 97 53 22 22 97 22 22 22 22 22 22 22 22 22 22 
22 53 22 53 53 22 22 53 22 22 22 22 22 22 22 53 
53 97 97 53 216 189 189 189 189 189 189 189 189 189 189 189 
189 189 189 189 189 189 189 189 189 189 189 189 189 189 189 189 
189 189 189 189 189 189 189 189 189 189 189 189 189 189 189 189 189 189 22 53 97 97 53 22 22 22 216 22 22 
22 22 22 53 22 22 22 22 22 22 22 22 97 22 22 22 
22 22 22 22 22 22 22 216 22 22 22 22 53 22 97 150 
97 53 150 53 22 22 53 22 22 22 22 22 22 22 22 22 
22 22 22 53 22 53 53 22 53 22 22 22 22 22 22 53 
97 53 97 97 216 189 189 189 189 189 189 189 189 189 189 189 
189 189 189 189 189 189 189 189 189 189 189 189 189 189 189 189 
189 189 189 189 189 189 189 189 189 189 189 189 189 189 189 189 189 189 97 22 150 53 53 22 22 22 216 22 22 
22 22 22 22 22 22 22 22 22 22 22 22 97 22 22 22 
22 22 22 22 22 22 22 216 53 22 53 22 22 22 97 216 
97 53 97 97 53 22 53 22 22 22 22 22 22 22 22 22 
22 22 53 53 22 22 53 22 22 22 22 22 22 22 53 53 
53 97 97 53 189 189 189 189 189 189 189 189 189 189 189 189 
189 189 189 189 189 189 189 189 189 189 189 189 189 189 189 189 
189 189 189 189 189 189 189 189 189 189 189 189 189 189 189 189 189 189 53 97 53 22 97 22 22 22 216 22 22 
22 22 22 22 22 22 22 22 22 22 22 22 22 22 22 22 
22 22 22 22 22 22 22 216 22 22 53 22 53 22 53 150 
150 97 53 97 97 53 22 53 22 22 22 22 22 22 22 22 
22 53 53 22 53 22 53 53 22 22 22 22 22 22 22 53 
53 97 53 97 189 189 189 189 189 189 189 189 189 189 189 189 
189 189 189 189 189 189 189 189 189 189 189 189 189 189 189 189 
189 189 189 189 189 189 189 189 189 189 189 189 189 189 189 189 189 216 53 97 53 22 97 22 22 22 97 22 22 
22 22 22 22 22 22 22 22 22 22 22 22 22 22 22 22 
22 22 22 22 22 22 22 216 22 22 22 22 53 22 53 150 
150 53 53 150 53 97 53 53 22 22 22 22 22 22 22 22 
22 22 22 22 53 53 22 53 53 22 22 22 22 22 53 53 
53 97 97 97 189 189 189 189 189 189 189 189 189 189 189 189 
189 189 189 189 189 189 189 189 189 189 189 189 189 189 189 189 
189 189 189 189 189 189 189 189 189 189 189 189 189 189 189 189 189 216 53 53 22 22 53 22 22 22 22 22 22 
22 22 22 22 22 22 22 22 22 22 22 22 22 53 22 22 
22 22 22 22 22 22 22 150 22 22 53 53 53 53 22 150 
150 53 22 150 150 97 22 22 53 53 22 22 22 22 22 22 
22 22 53 22 53 53 22 53 22 22 22 22 22 22 22 53 
97 97 97 150 189 189 189 189 189 189 189 189 189 189 189 189 
189 189 189 189 189 189 189 189 189 189 189 189 189 189 189 189 
189 189 189 189 189 189 189 189 189 189 189 189 189 189 189 189 189 216 53 97 22 22 22 22 22 22 22 22 22 
22 22 22 22 22 22 22 22 22 22 22 22 22 22 22 22 
22 22 22 22 22 22 22 97 22 22 22 53 22 53 22 97 
216 22 22 97 97 22 97 53 53 22 22 22 22 22 22 22 
22 22 22 53 22 53 22 53 53 22 22 22 22 22 53 53 
97 97 97 216 189 189 189 189 189 189 189 189 189 189 189 189 
189 189 189 189 189 189 189 189 189 189 189 189 189 189 189 189 
189 189 189 189 189 189 189 189 189 189 189 189 189 189 189 189 189 216 53 53 22 150 22 53 22 22 22 22 22 
22 22 22 22 22 22 22 22 22 22 22 22 53 22 22 53 
22 53 22 22 53 22 22 22 22 22 22 22 53 22 53 22 
216 22 22 22 150 53 150 97 53 53 22 22 22 22 22 22 
22 22 22 22 53 53 53 53 22 22 22 22 22 22 53 53 
97 97 97 189 189 189 189 189 189 189 189 189 189 189 189 189 
189 189 189 189 189 189 189 189 189 189 189 189 189 189 189 189 
189 189 189 189 189 189 189 189 189 189 189 189 189 189 189 189 189 216 53 22 22 216 22 53 22 97 22 22 22 
22 22 22 22 22 22 22 22 22 53 22 22 22 53 53 22 
22 22 53 53 22 53 22 53 22 22 22 53 22 53 53 53 
216 22 22 22 216 22 97 97 97 53 22 22 22 22 22 22 
22 22 22 53 22 53 53 53 22 22 22 22 22 22 53 53 
97 97 216 189 189 189 189 189 189 189 189 189 189 189 189 189 
189 189 189 189 189 189 189 189 189 189 189 189 189 189 189 189 
189 189 189 189 189 189 189 189 189 189 189 189 189 189 189 189 189 150 97 22 22 216 53 53 22 216 22 53 22 
22 22 97 22 22 22 22 22 22 22 22 53 53 22 53 53 
53 53 22 22 22 53 22 53 22 53 22 22 22 22 22 97 
150 53 22 22 150 97 53 97 97 53 53 22 22 22 22 22 
22 22 22 22 22 53 22 53 22 22 22 22 22 22 53 53 
97 97 189 189 189 189 189 189 189 189 189 189 189 189 189 189 
189 189 189 189 189 189 189 189 189 189 189 189 189 189 189 189 
189 189 189 189 189 189 189 189 189 189 189 189 189 189 189 189 189 150 53 97 22 216 150 53 22 216 22 53 22 
22 22 150 22 22 22 53 22 53 53 53 22 53 53 97 53 
53 53 53 53 53 22 53 22 53 53 22 22 53 22 53 150 
150 22 22 22 150 150 53 53 97 97 53 22 22 22 22 22 
22 22 22 53 53 53 22 22 53 22 22 22 22 22 53 53 
53 216 189 189 189 189 189 189 189 189 189 189 189 189 189 189 
189 189 189 189 189 189 189 189 189 189 189 189 189 189 189 189 
189 189 189 189 189 189 189 189 189 189 189 189 189 189 189 189 189 150 53 97 22 150 150 53 22 216 53 53 22 
22 53 97 53 22 22 22 22 53 53 53 53 53 53 97 97 
53 53 53 53 53 53 53 53 53 53 53 53 53 53 53 150 
53 22 22 22 97 150 22 53 97 150 53 97 22 22 22 22 
22 22 22 22 22 22 53 22 53 53 22 22 22 22 53 97 
97 189 189 189 189 189 189 189 189 189 189 189 189 189 189 189 
189 189 189 189 189 189 189 189 189 189 189 189 189 189 189 189 
189 189 189 189 189 189 189 189 189 189 189 189 189 189 189 189 189 150 53 97 53 150 216 53 22 216 53 53 22 
22 97 53 53 22 22 22 53 22 53 53 53 53 97 53 53 
53 53 53 53 53 53 22 53 97 53 22 53 53 53 22 216 
53 53 53 53 53 97 22 53 97 97 150 53 97 22 22 22 
22 22 22 22 22 53 22 22 22 22 22 22 22 53 97 97 
150 189 189 189 189 189 189 189 189 189 189 189 189 189 189 189 
189 189 189 189 189 189 189 189 189 189 189 189 189 189 189 189 
189 189 189 189 189 189 189 189 189 189 189 189 189 189 189 189 189 216 53 53 97 53 216 53 53 150 97 53 22 
22 150 53 22 22 53 22 53 22 53 53 53 53 216 53 53 
53 53 53 53 53 53 53 53 53 53 53 53 53 53 53 216 
22 53 53 22 53 97 22 53 150 53 53 97 97 53 22 22 
22 22 22 22 22 22 22 53 53 53 22 22 22 53 97 97 
216 189 189 189 189 189 189 189 189 189 189 189 189 189 189 189 
189 189 189 189 189 189 189 189 189 189 189 189 189 189 189 189 
189 189 189 189 189 189 189 189 189 189 189 189 189 189 189 189 189 216 53 53 97 53 97 53 53 150 150 53 22 
22 216 53 22 22 22 53 53 53 53 53 22 53 216 22 53 
53 150 22 22 53 53 53 53 97 53 53 53 53 53 22 216 
53 53 53 22 53 150 22 53 150 97 97 53 150 97 22 22 
22 22 22 22 22 22 53 22 22 22 22 22 53 53 53 150 
189 189 189 189 189 189 189 189 189 189 189 189 189 189 189 189 
189 189 189 189 189 189 189 189 189 189 189 189 189 189 189 189 
189 189 189 189 189 189 189 189 189 189 189 189 189 189 189 189 189 216 53 97 53 97 97 22 97 150 150 97 22 
22 216 53 22 22 22 22 22 53 53 53 53 53 216 53 53 
53 216 22 53 53 53 53 97 53 53 53 53 53 53 53 150 
22 53 22 53 53 150 22 97 216 150 150 97 53 97 97 22 
22 22 22 22 22 22 22 22 53 53 22 22 53 97 97 189 
189 189 189 189 189 189 189 189 189 189 189 189 189 189 189 189 
189 189 189 189 189 189 189 189 189 189 189 189 189 189 189 189 
189 189 189 189 189 189 189 189 189 189 189 189 189 189 189 189 189 189 97 53 97 53 97 53 97 150 150 97 22 
22 216 22 22 53 22 22 22 22 22 53 22 22 216 22 53 
22 216 22 22 53 22 22 150 97 53 22 53 53 53 53 150 
22 150 22 22 53 150 53 150 97 97 150 97 97 97 97 97 
22 22 22 22 22 22 53 22 22 53 22 53 53 53 150 189 
189 189 189 189 189 189 189 189 189 189 189 189 189 189 189 189 
189 189 189 189 189 189 189 189 189 189 189 189 189 189 189 189 
189 189 189 189 189 189 189 189 189 189 189 189 189 189 189 189 189 189 97 53 97 97 22 97 53 97 97 53 22 
22 189 22 22 216 22 22 22 22 22 97 53 97 216 22 22 
22 216 22 22 22 22 22 150 53 53 22 53 53 53 53 150 
22 150 22 53 97 97 53 150 97 53 22 53 53 53 97 97 
22 22 22 22 22 22 22 53 53 53 53 22 97 97 189 189 
189 189 189 189 189 189 189 189 189 189 189 189 189 189 189 189 
189 189 189 189 189 189 189 189 189 189 189 189 189 189 189 189 
189 189 189 189 189 189 189 189 189 189 189 189 189 189 189 189 189 189 216 97 53 97 97 53 150 97 97 97 22 
22 216 53 22 150 22 22 22 22 22 53 22 150 150 22 22 
22 216 22 22 22 22 22 150 53 22 22 22 97 53 53 216 
53 97 53 97 97 97 53 22 22 53 53 97 97 97 53 53 
22 22 22 22 22 22 22 53 53 53 53 53 53 216 189 189 
189 189 189 189 189 189 189 189 189 189 189 189 189 189 189 189 
189 189 189 189 189 189 189 189 189 189 189 189 189 189 189 189 
189 189 189 189 189 189 189 189 189 189 189 189 189 189 189 189 189 189 189 97 97 53 97 53 53 97 97 150 53 
22 216 97 22 97 22 22 22 22 150 22 22 97 150 22 22 
53 150 22 22 22 22 22 216 97 22 97 97 150 22 97 97 
53 150 97 53 53 53 53 97 97 97 97 53 53 22 22 22 
22 22 22 22 22 53 53 22 53 53 53 53 97 189 189 189 
189 189 189 189 189 189 189 189 189 189 189 189 189 189 189 189 
189 189 189 189 189 189 189 189 189 189 189 189 189 189 189 189 
189 189 189 189 189 189 189 189 189 189 189 189 189 189 189 189 189 189 189 150 97 53 97 97 53 53 97 216 97 
53 97 53 22 150 53 22 22 22 216 22 22 150 150 22 53 
97 216 22 22 22 22 22 216 97 53 97 53 150 97 150 97 
53 53 53 53 53 97 97 97 97 22 22 22 22 22 22 22 
22 22 22 22 22 22 53 53 53 97 53 97 150 189 189 189 
189 189 189 189 189 189 189 189 189 189 189 189 189 189 189 189 
189 189 189 189 189 189 189 189 189 189 189 189 189 189 189 189 
189 189 189 189 189 189 189 189 189 189 189 189 189 189 189 189 189 189 189 216 53 97 97 53 97 53 53 97 150 
53 22 97 53 150 53 22 22 22 216 22 22 150 150 22 53 
97 150 53 22 53 53 53 97 53 22 150 97 97 53 97 53 
53 97 97 97 97 97 22 22 22 22 22 22 22 22 22 53 
22 22 22 22 22 22 53 53 53 97 53 53 189 189 189 189 
189 189 189 189 189 189 189 189 189 189 189 189 189 189 189 189 
189 189 189 189 189 189 189 189 189 189 189 189 189 189 189 189 
189 189 189 189 189 189 189 189 189 189 189 189 189 189 189 189 189 189 189 189 97 22 97 53 53 97 97 97 53 
150 53 97 22 150 97 22 22 22 216 22 22 216 150 53 53 
150 150 150 22 53 97 22 97 97 97 53 53 53 97 97 97 
97 97 97 22 22 22 22 22 22 22 22 22 22 22 22 22 
22 22 53 22 22 22 53 53 53 97 53 150 189 189 189 189 
189 189 189 189 189 189 189 189 189 189 189 189 189 189 189 189 
189 189 189 189 189 189 189 189 189 189 189 189 189 189 189 189 
189 189 189 189 189 189 189 189 189 189 189 189 189 189 189 189 189 189 189 189 97 53 53 97 53 97 97 53 97 
97 97 97 97 97 53 22 22 97 150 22 53 97 22 53 97 
97 22 216 53 97 97 97 53 22 53 53 97 97 97 97 97 
97 22 22 22 22 22 22 53 22 53 53 53 53 53 22 53 
53 22 22 53 22 53 53 53 97 53 53 189 189 189 189 189 
189 189 189 189 189 189 189 189 189 189 189 189 189 189 189 189 
189 189 189 189 189 189 189 189 189 189 189 189 189 189 189 189 
189 189 189 189 189 189 189 189 189 189 189 189 189 189 189 189 189 189 189 189 216 97 97 53 97 53 53 97 53 
97 97 97 97 97 97 22 53 97 150 22 22 97 53 53 97 
97 53 97 97 53 22 22 53 53 53 97 97 97 97 53 22 
22 22 22 22 22 22 53 22 53 53 53 53 22 53 22 53 
22 53 53 22 22 53 53 97 97 97 216 189 189 189 189 189 
189 189 189 189 189 189 189 189 189 189 189 189 189 189 189 189 
189 189 189 189 189 189 189 189 189 189 189 189 189 189 189 189 
189 189 189 189 189 189 189 189 189 189 189 189 189 189 189 189 189 189 189 189 189 97 97 97 53 97 53 53 97 
53 53 53 53 97 97 97 97 97 53 97 97 150 97 97 97 
53 53 22 22 53 22 53 97 97 150 97 53 22 53 22 22 
53 22 22 22 53 53 53 53 53 22 22 22 22 53 53 22 
53 22 22 53 53 97 53 97 97 97 189 189 189 189 189 189 
189 189 189 189 189 189 189 189 189 189 189 189 189 189 189 189 
189 189 189 189 189 189 189 189 189 189 189 189 189 189 189 189 
189 189 189 189 189 189 189 189 189 189 189 189 189 189 189 189 189 189 189 189 189 216 53 97 97 53 53 53 53 
97 97 53 53 97 53 53 97 97 97 53 53 53 22 53 22 
53 22 22 53 53 97 97 97 53 22 22 22 53 53 53 53 
53 53 53 53 53 53 22 53 22 53 53 53 22 53 22 53 
53 53 53 53 53 53 97 97 53 189 189 189 189 189 189 189 
189 189 189 189 189 189 189 189 189 189 189 189 189 189 189 189 
189 189 189 189 189 189 189 189 189 189 189 189 189 189 189 189 
189 189 189 189 189 189 189 189 189 189 189 189 189 189 189 189 189 189 189 189 189 189 189 97 97 97 53 53 53 
22 53 97 97 97 97 97 97 97 53 97 22 53 53 22 53 
22 53 53 53 53 53 22 22 22 53 22 53 53 97 53 53 
22 53 22 53 22 22 53 22 22 53 53 22 53 53 53 53 
53 53 53 97 97 97 97 97 150 189 189 189 189 189 189 189 
189 189 189 189 189 189 189 189 189 189 189 189 189 189 189 189 
189 189 189 189 189 189 189 189 189 189 189 189 189 189 189 189 
189 189 189 189 189 189 189 189 189 189 189 189 189 189 189 189 189 189 189 189 189 189 189 189 150 53 53 53 53 
53 22 22 53 97 97 97 97 97 97 97 53 53 53 53 53 
53 22 22 22 22 22 22 22 53 53 53 53 53 53 53 53 
53 53 53 53 53 53 53 53 53 53 22 53 53 53 53 53 
53 53 97 97 97 97 97 97 189 189 189 189 189 189 189 189 
189 189 189 189 189 189 189 189 189 189 189 189 189 189 189 189 
189 189 189 189 189 189 189 189 189 189 189 189 189 189 189 189 
189 189 189 189 189 189 189 189 189 189 189 189 189 189 189 189 189 189 189 189 189 189 189 189 189 189 97 53 53 
53 53 53 53 22 53 97 97 53 53 53 53 22 53 22 22 
22 22 22 22 22 22 22 53 53 22 53 53 53 53 53 53 
53 22 53 53 53 53 53 53 22 53 53 53 53 53 53 97 
97 53 97 53 53 97 150 189 189 189 189 189 189 189 189 189 
189 189 189 189 189 189 189 189 189 189 189 189 189 189 189 189 
189 189 189 189 189 189 189 189 189 189 189 189 189 189 189 189 
189 189 189 189 189 189 189 189 189 189 189 189 189 189 189 189 189 189 189 189 189 189 189 189 189 189 189 150 53 
53 53 53 97 53 22 22 22 53 22 22 22 22 22 22 22 
22 22 22 22 22 22 22 22 22 22 53 53 53 22 53 53 
53 53 53 53 53 53 53 53 53 53 53 53 53 53 53 53 
53 53 97 216 189 189 189 189 189 189 189 189 189 189 189 189 
189 189 189 189 189 189 189 189 189 189 189 189 189 189 189 189 
189 189 189 189 189 189 189 189 189 189 189 189 189 189 189 189 
189 189 189 189 189 189 189 189 189 189 189 189 189 189 189 189 189 189 189 189 189 189 189 189 189 189 189 189 189 
53 53 97 53 97 53 53 22 22 22 22 22 22 22 22 22 
22 22 22 22 22 22 22 22 53 22 22 22 53 53 22 53 
22 22 53 22 22 22 22 22 22 22 53 22 53 53 53 53 
97 216 189 189 189 189 189 189 189 189 189 189 189 189 189 189 
189 189 189 189 189 189 189 189 189 189 189 189 189 189 189 189 
189 189 189 189 189 189 189 189 189 189 189 189 189 189 189 189 
189 189 189 189 189 189 189 189 189 189 189 189 189 189 189 189 189 189 189 189 189 189 189 189 189 189 189 189 189 
189 97 53 53 97 97 97 97 97 53 53 53 22 22 53 22 
53 22 22 53 22 22 22 53 22 22 53 53 22 53 53 22 
22 53 22 22 22 22 22 53 53 53 53 53 53 53 97 216 
189 189 189 189 189 189 189 189 189 189 189 189 189 189 189 189 
189 189 189 189 189 189 189 189 189 189 189 189 189 189 189 189 
189 189 189 189 189 189 189 189 189 189 189 189 189 189 189 189 
189 189 189 189 189 189 189 189 189 189 189 189 189 189 189 189 189 189 189 189 189 189 189 189 189 189 189 189 189 
189 189 97 53 53 53 97 97 97 97 53 97 97 53 97 53 
53 53 22 53 53 53 22 53 22 53 22 53 53 53 22 53 
53 22 22 53 53 53 53 53 53 53 53 53 150 216 189 189 
189 189 189 189 189 189 189 189 189 189 189 189 189 189 189 189 
189 189 189 189 189 189 189 189 189 189 189 189 189 189 189 189 
189 189 189 189 189 189 189 189 189 189 189 189 189 189 189 189 
189 189 189 189 189 189 189 189 189 189 189 189 189 189 189 189 189 189 189 189 189 189 189 189 189 189 189 189 189 
189 189 189 150 53 97 53 53 53 97 97 97 97 97 53 53 
53 53 53 53 53 53 22 53 53 53 53 53 22 53 53 53 
53 53 53 53 53 53 53 53 53 53 150 189 189 189 189 189 
189 189 189 189 189 189 189 189 189 189 189 189 189 189 189 189 
189 189 189 189 189 189 189 189 189 189 189 189 189 189 189 189 
189 189 189 189 189 189 189 189 189 189 189 189 189 189 189 189 
189 189 189 189 189 189 189 189 189 189 189 189 189 189 189 189 189 189 189 189 189 189 189 189 189 189 189 189 189 
189 189 189 189 150 53 53 97 53 53 53 53 53 53 97 53 
53 22 53 22 53 53 53 53 22 53 53 53 53 53 53 53 
53 97 53 53 53 53 53 97 97 216 189 189 189 189 189 189 
189 189 189 189 189 189 189 189 189 189 189 189 189 189 189 189 
189 189 189 189 189 189 189 189 189 189 189 189 189 189 189 189 
189 189 189 189 189 189 189 189 189 189 189 189 189 189 189 189 
189 189 189 189 189 189 189 189 189 189 189 189 189 189 189 189 189 189 189 189 189 189 189 189 189 189 189 189 189 
189 189 189 189 189 216 53 22 53 22 53 53 22 53 53 22 
53 53 53 53 53 53 22 53 53 53 53 53 97 53 97 53 
97 53 53 53 53 97 53 150 189 189 189 189 189 189 189 189 
189 189 189 189 189 189 189 189 189 189 189 189 189 189 189 189 
189 189 189 189 189 189 189 189 189 189 189 189 189 189 189 189 
189 189 189 189 189 189 189 189 189 189 189 189 189 189 189 189 
189 189 189 189 189 189 189 189 189 189 189 189 189 189 189 189 189 189 189 189 189 189 189 189 189 189 189 189 189 
189 189 189 189 189 189 189 216 53 53 53 53 53 53 22 53 
22 53 22 22 53 22 53 53 53 53 53 53 97 97 97 97 
97 53 97 53 97 53 216 189 189 189 189 189 189 189 189 189 
189 189 189 189 189 189 189 189 189 189 189 189 189 189 189 189 
189 189 189 189 189 189 189 189 189 189 189 189 189 189 189 189 
189 189 189 189 189 189 189 189 189 189 189 189 189 189 189 189 
189 189 189 189 189 189 189 189 189 189 189 189 189 189 189 189 189 189 189 189 189 189 189 189 189 189 189 189 189 
189 189 189 189 189 189 189 189 189 216 97 53 53 53 53 53 
53 53 53 53 53 53 97 53 53 53 97 97 53 97 53 97 
53 97 97 97 150 189 189 189 189 189 189 189 189 189 189 189 
189 189 189 189 189 189 189 189 189 189 189 189 189 189 189 189 
189 189 189 189 189 189 189 189 189 189 189 189 189 189 189 189 
189 189 189 189 189 189 189 189 189 189 189 189 189 189 189 189 
189 189 189 189 189 189 189 189 189 189 189 189 189 189 189 189 189 189 189 189 189 189 189 189 189 189 189 189 189 
189 189 189 189 189 189 189 189 189 189 189 189 216 216 150 97 
97 53 53 97 53 97 97 53 97 53 97 53 97 97 97 97 
97 97 97 216 189 189 189 189 189 189 189 189 189 189 189 189 
189 189 189 189 189 189 189 189 189 189 189 189 189 189 189 189 
189 189 189 189 189 189 189 189 189 189 189 189 189 189 189 189 
189 189 189 189 189 189 189 189 189 189 189 189 189 189 189 189 
189 189 189 189 189 189 189 189 189 189 189 189 189 189 189 189 189 189 189 189 189 189 189 189 189 189 189 189 189 
189 189 189 189 189 189 189 189 189 189 189 189 189 189 189 189 
189 189 189 216 150 97 97 97 97 53 97 97 97 97 97 97 
150 216 189 189 189 189 189 189 189 189 189 189 189 189 189 189 
189 189 189 189 189 189 189 189 189 189 189 189 189 189 189 189 
189 189 189 189 189 189 189 189 189 189 189 189 189 189 189 189 
189 189 189 189 189 189 189 189 189 189 189 189 189 189 189 189 
189 189 189 189 189 189 189 189 189 189 189 189 189 189 189 189 189 189 189 189 189 189 189 189 189 189 189 189 189 
189 189 189 189 189 189 189 189 189 189 189 189 189 189 189 189 
189 189 189 189 189 189 189 216 150 150 150 150 150 216 216 189 
189 189 189 189 189 189 189 189 189 189 189 189 189 189 189 189 
189 189 189 189 189 189 189 189 189 189 189 189 189 189 189 189 
189 189 189 189 189 189 189 189 189 189 189 189 189 189 189 189 
189 189 189 189 189 189 189 189 189 189 189 189 189 189 189 189 
189 189 189 189 189 189 189 189 189 189 189 189 189 189 189 189 189 189 189 189 189 189 189 189 189 189 189 189 189 
189 189 189 189 189 189 189 189 189 189 189 189 189 189 189 189 
189 189 189 189 189 189 189 189 189 189 189 189 189 189 189 189 
189 189 189 189 189 189 189 189 189 189 189 189 189 189 189 189 
189 189 189 189 189 189 189 189 189 189 189 189 189 189 189 189 
189 189 189 189 189 189 189 189 189 189 189 189 189 189 189 189 
189 189 189 189 189 189 189 189 189 189 189 189 189 189 189 189 
189 189 189 189 189 189 189 189 189 189 189 189 189 189 189 189 189 189 189 189 189 189 189 189 189 189 189 189 189 
189 189 189 189 189 189 189 189 189 189 189 189 189 189 189 189 
189 189 189 189 189 189 189 189 189 189 189 189 189 189 189 189 
189 189 189 189 189 189 189 189 189 189 189 189 189 189 189 189 
189 189 189 189 189 189 189 189 189 189 189 189 189 189 189 189 
189 189 189 189 189 189 189 189 189 189 189 189 189 189 189 189 
189 189 189 189 189 189 189 189 189 189 189 189 189 189 189 189 
189 189 189 189 189 189 189 189 189 189 189 189 189 189 189 189 189 189 189 189 189 189 189 189 189 189 189 189 189 
189 189 189 189 189 189 189 189 189 189 189 189 189 189 189 189 
189 189 189 189 189 189 189 189 189 189 189 189 189 189 189 189 
189 189 189 189 189 189 189 189 189 189 189 189 189 189 189 189 
189 189 189 189 189 189 189 189 189 189 189 189 189 189 189 189 
189 189 189 189 189 189 189 189 189 189 189 189 189 189 189 189 
189 189 189 189 189 189 189 189 189 189 189 189 189 189 189 189 
189 189 189 189 189 189 189 189 189 189 189 189 189 189 189 189 189 189 189 189 189 189 189 189 189 189 189 189 189 
189 189 189 189 189 189 189 189 189 189 189 189 189 189 189 189 
189 189 189 189 189 189 189 189 189 189 189 189 189 189 189 189 
189 189 189 189 189 189 189 189 189 189 189 189 189 189 189 189 
189 189 189 189 189 189 189 189 189 189 189 189 189 189 189 189 
189 189 189 189 189 189 189 189 189 189 189 189 189 189 189 189 
189 189 189 189 189 189 189 189 189 189 189 189 189 189 189 189 
189 189 189 189 189 189 189 189 189 189 189 189 
